X:0871
T:Coolun,
C:Irish.
M:3/4
L:1/8
Q:1/4=70 "Slow"
I: :: ||
Z:Jack Campin * www.campin.me.uk * 2009
K:G
(de/f/)|g2  g>b        ag/f/ |g2  B2 (3(GBd)     |   g>f   ga/b/ ag     |(g2f2)
 g>f   |e2 (ef/g/) {a}(gf/e/)|d2  B>d   g>d      |{f}ed/c/ B>G  (A2{GA})| G4 :|
 d>c   |BA  GA         B>c   |d^c d>e   d3/e//f//|   g>f   ga/b/ ag     |(g2f2)
 g>f   |e2 (ef/g/) {a} gf/e/ |d2  B>d   g>d      |{f}ed/c/ B>G (TA2{GA})| G4 :|


